X:0708
T:Tartan Plaidie
P:Tartan Plaidie
C:William Campbell's Country Dances III, ca. 1790
R:Strathspey (8x32)
B:RSCDS 7-8
Z:Anselm Lingnau <anselm@strathspey.org>
M:4/4
L:1/8
K:C
e/f/|"C"g<c g>e g<c g>e|g<c g>e "G"f<d de/f/|\
     "C"g<c g>e g<c g>e|"F"f<a "G"g>f "C"e<c c e/f/|
     "C"g<c g>e g<c g>e|g<c g>e "G"f<d de/f/|\
     "C"g<c g>e g<c g>e|"F"f<a "G"g>f "C"e<c ce||
     "C"G>c E>c G>c e>c|G>c E>c "G"d<D D>c|\
     "C"G>c E>c G>c e>c|"F"f/g/a "G7"g>f "C"e<c c>e|
     "C"G>c E>c G>c e>c|G>c E>c "G"d<D D>c|\
     "F"a>f "C/E"g>e "Dm"f>d "C"e>c|"F"f<a "G7"g>f "C"e<c c|]
